X:60
T: Winterrosen
N: A0060
O: Europa, Mitteleuropa, Deutschland
N: Melodie aus: Reutterliedlein 1535 No.10. Ganz gleichlautend bei J.Ott
N: 1534 No.62 und Forster II. 1540 No.23.
R: Romanze, Ballade, Lied
M: 6/2
L: 1/4
K: F
F2 | F2F2G2G2 | A2A2F2F2 | B3AG2A4G2 | FEF2G4 | z2
G2B2B2 | A4A2G4G2 | F3GA3G | F2EDE2z2 | z2
C2F2F2 | A4G2F2 | G4F2-F4

@@@ Tune index: 60
